img/svg/stone-shape-10.svg

<svg width="36" height="36" viewBox="0 0 36 36" fill="none" xmlns="http://www.w3.org/2000/svg"><path d="M18 34l-9-1-7-3 1-8 4-8 5-7 6-5 6 5 5 7 4 8 1 8-7 3-9 1z" stroke="#A39D94" stroke-miterlimit="10"/><path d="M2 30l3-6 13-13 6-4m10 23h-7l-9-1-9 1H2" stroke="#A39D94" stroke-miterlimit="10"/><path d="M12 7l6 4 13 13 3 6" stroke="#A39D94" stroke-miterlimit="10"/><path d="M3 22l2 2 4 2 9 3 8-3 5-2 2-2" stroke="#A39D94" stroke-miterlimit="10"/><path d="M18 2l4 7 3 9 2 7v8M18 2l-4 7-3 9-2 7v8" stroke="#A39D94" stroke-miterlimit="10"/><path d="M9 30l9 4 9-4M22 8l7 6 2 10M14 8l-7 6-2 10" stroke="#A39D94" stroke-miterlimit="10"/></svg>

<svg width="36" height="36" viewBox="0 0 36 36" fill="none" xmlns="http://www.w3.org/2000/svg">
<path d="M18 34L9 33L2 30L3 22L7 14L12 7L18 2L24 7L29 14L33 22L34 30L27 33L18 34Z" stroke="#A39D94" stroke-miterlimit="10"/>
<path d="M2 30L5 24L18 11L24 7" stroke="#A39D94" stroke-miterlimit="10"/>
<path d="M34 30H27L18 29L9 30H2" stroke="#A39D94" stroke-miterlimit="10"/>
<path d="M12 7L18 11L31 24L34 30" stroke="#A39D94" stroke-miterlimit="10"/>
<path d="M3 22L5 24L9 26L18 29L26 26L31 24L33 22" stroke="#A39D94" stroke-miterlimit="10"/>
<path d="M18 2L22 9L25 18L27 25V33" stroke="#A39D94" stroke-miterlimit="10"/>
<path d="M18 2L14 9L11 18L9 25V33" stroke="#A39D94" stroke-miterlimit="10"/>
<path d="M9 30L18 34L27 30" stroke="#A39D94" stroke-miterlimit="10"/>
<path d="M22 8L29 14L31 24" stroke="#A39D94" stroke-miterlimit="10"/>
<path d="M14 8L7 14L5 24" stroke="#A39D94" stroke-miterlimit="10"/>
</svg>
